dist/img/svg/services/conditioning/VRV-VRF.svg

<svg width="22" height="20" viewBox="0 0 22 20" fill="none" xmlns="http://www.w3.org/2000/svg">
<path d="M20.5868 17.5781H20.3112V16.8637V4.87277V3.38871C20.3112 2.41832 19.5217 1.62887 18.5513 1.62887H18.095C17.9636 1.08555 17.4736 0.680664 16.8904 0.680664H4.92348C4.34035 0.680664 3.85031 1.08555 3.71891 1.62887H3.44867C2.47828 1.62887 1.68883 2.41832 1.68883 3.38871V4.87281V16.8637V17.5781H1.4132C1.18535 17.5781 1 17.7634 1 17.9913V18.906C1 19.1339 1.18535 19.3193 1.4132 19.3193H20.5868C20.8146 19.3193 21 19.1339 21 18.906V17.9913C21 17.7634 20.8146 17.5781 20.5868 17.5781ZM2.27137 3.38871C2.27137 2.73953 2.79949 2.21141 3.44867 2.21141H5.29125C5.45211 2.21141 5.5825 2.08102 5.5825 1.92016C5.5825 1.7593 5.45211 1.62891 5.29125 1.62891H4.33551C4.44313 1.41258 4.6659 1.2632 4.92348 1.2632H16.8904C17.148 1.2632 17.3708 1.41258 17.4784 1.62891H6.56809C6.40723 1.62891 6.27684 1.7593 6.27684 1.92016C6.27684 2.08102 6.40723 2.21141 6.56809 2.21141H18.5513C19.2005 2.21141 19.7286 2.73953 19.7286 3.38871V3.48324H2.27137V3.38871ZM2.27137 5.16406H4.26867C4.67195 5.16406 5.00004 5.49215 5.00004 5.89543V15.8411C5.00004 16.2443 4.67195 16.5724 4.26867 16.5724H2.27137V5.16406ZM1.58254 18.7367V18.1606H3.03887C3.19973 18.1606 3.33012 18.0302 3.33012 17.8693C3.33012 17.7085 3.19973 17.5781 3.03887 17.5781H2.27137V17.155H4.26867C4.99316 17.155 5.58254 16.5655 5.58254 15.8411V5.89543C5.58254 5.17094 4.99312 4.58152 4.26867 4.58152H2.27137V4.06574H10.7087V7.05297C10.7087 7.21383 10.8391 7.34422 11 7.34422C11.1609 7.34422 11.2913 7.21383 11.2913 7.05297V4.06574H19.7286V4.58152H17.7313C17.0068 4.58152 16.4175 5.17094 16.4175 5.89543V15.8411C16.4175 16.5655 17.0069 17.155 17.7313 17.155H19.7286V17.5781H11.2913V8.23402C11.2913 8.07316 11.1609 7.94277 11 7.94277C10.8391 7.94277 10.7087 8.07316 10.7087 8.23402V17.5781H4.29449C4.13363 17.5781 4.00324 17.7085 4.00324 17.8693C4.00324 18.0302 4.13363 18.1606 4.29449 18.1606H20.4175V18.7368L1.58254 18.7367ZM19.7286 5.16406V16.5725H17.7313C17.328 16.5725 17 16.2444 17 15.8411V5.89543C17 5.49215 17.328 5.16406 17.7313 5.16406H19.7286Z" fill="#78C081"/>
<path d="M4.09216 5.67163H2.95653C2.79567 5.67163 2.66528 5.80202 2.66528 5.96288C2.66528 6.12374 2.79567 6.25413 2.95653 6.25413H4.09216C4.25302 6.25413 4.38341 6.12374 4.38341 5.96288C4.38341 5.80202 4.25302 5.67163 4.09216 5.67163Z" fill="#78C081"/>
<path d="M4.09216 6.76172H2.95653C2.79567 6.76172 2.66528 6.89211 2.66528 7.05297C2.66528 7.21383 2.79567 7.34422 2.95653 7.34422H4.09216C4.25302 7.34422 4.38341 7.21383 4.38341 7.05297C4.38341 6.89211 4.25302 6.76172 4.09216 6.76172Z" fill="#78C081"/>
<path d="M4.09216 7.85181H2.95653C2.79567 7.85181 2.66528 7.9822 2.66528 8.14306C2.66528 8.30392 2.79567 8.43431 2.95653 8.43431H4.09216C4.25302 8.43431 4.38341 8.30392 4.38341 8.14306C4.38341 7.9822 4.25302 7.85181 4.09216 7.85181Z" fill="#78C081"/>
<path d="M4.09216 8.94189H2.95653C2.79567 8.94189 2.66528 9.07228 2.66528 9.23314C2.66528 9.394 2.79567 9.52439 2.95653 9.52439H4.09216C4.25302 9.52439 4.38341 9.394 4.38341 9.23314C4.38341 9.07228 4.25302 8.94189 4.09216 8.94189Z" fill="#78C081"/>
<path d="M4.09216 10.032H2.95653C2.79567 10.032 2.66528 10.1624 2.66528 10.3232C2.66528 10.4841 2.79567 10.6145 2.95653 10.6145H4.09216C4.25302 10.6145 4.38341 10.4841 4.38341 10.3232C4.38341 10.1624 4.25302 10.032 4.09216 10.032Z" fill="#78C081"/>
<path d="M4.09216 11.1221H2.95653C2.79567 11.1221 2.66528 11.2525 2.66528 11.4133C2.66528 11.5742 2.79567 11.7046 2.95653 11.7046H4.09216C4.25302 11.7046 4.38341 11.5742 4.38341 11.4133C4.38341 11.2525 4.25302 11.1221 4.09216 11.1221Z" fill="#78C081"/>
<path d="M4.09216 12.2122H2.95653C2.79567 12.2122 2.66528 12.3425 2.66528 12.5034C2.66528 12.6643 2.79567 12.7947 2.95653 12.7947H4.09216C4.25302 12.7947 4.38341 12.6643 4.38341 12.5034C4.38341 12.3425 4.25302 12.2122 4.09216 12.2122Z" fill="#78C081"/>
<path d="M4.09216 13.3022H2.95653C2.79567 13.3022 2.66528 13.4326 2.66528 13.5935C2.66528 13.7544 2.79567 13.8847 2.95653 13.8847H4.09216C4.25302 13.8847 4.38341 13.7544 4.38341 13.5935C4.38341 13.4326 4.25302 13.3022 4.09216 13.3022Z" fill="#78C081"/>
<path d="M4.09216 14.3923H2.95653C2.79567 14.3923 2.66528 14.5227 2.66528 14.6836C2.66528 14.8444 2.79567 14.9748 2.95653 14.9748H4.09216C4.25302 14.9748 4.38341 14.8444 4.38341 14.6836C4.38341 14.5227 4.25302 14.3923 4.09216 14.3923Z" fill="#78C081"/>
<path d="M4.0922 15.4824H2.95653C2.79567 15.4824 2.66528 15.6128 2.66528 15.7737C2.66528 15.9345 2.79567 16.0649 2.95653 16.0649H4.09216C4.25302 16.065 4.38345 15.9346 4.38345 15.7737C4.38345 15.6129 4.25306 15.4824 4.0922 15.4824Z" fill="#78C081"/>
<path d="M9.75732 5.67163H6.56811C6.40725 5.67163 6.27686 5.80202 6.27686 5.96288C6.27682 6.12374 6.40725 6.25413 6.56811 6.25413H9.75732C9.91818 6.25413 10.0486 6.12374 10.0486 5.96288C10.0486 5.80198 9.91818 5.67163 9.75732 5.67163Z" fill="#78C081"/>
<path d="M9.75732 4.58154H6.56811C6.40725 4.58154 6.27686 4.71193 6.27686 4.87279C6.27682 5.03365 6.40725 5.16404 6.56811 5.16404H9.75732C9.91818 5.16404 10.0486 5.03365 10.0486 4.87279C10.0486 4.71193 9.91818 4.58154 9.75732 4.58154Z" fill="#78C081"/>
<path d="M9.75732 16.5808H6.56811C6.40725 16.5808 6.27686 16.7112 6.27686 16.8721C6.27686 17.0329 6.40725 17.1633 6.56811 17.1633H9.75732C9.91818 17.1633 10.0486 17.0329 10.0486 16.8721C10.0486 16.7112 9.91818 16.5808 9.75732 16.5808Z" fill="#78C081"/>
<path d="M9.75732 6.76172H6.56811C6.40725 6.76172 6.27686 6.89211 6.27686 7.05297C6.27682 7.21379 6.40725 7.34422 6.56811 7.34422H9.75732C9.91818 7.34422 10.0486 7.21383 10.0486 7.05297C10.0486 6.89211 9.91818 6.76172 9.75732 6.76172Z" fill="#78C081"/>
<path d="M9.75732 7.85181H6.56811C6.40725 7.85181 6.27686 7.9822 6.27686 8.14306C6.27682 8.30392 6.40725 8.43431 6.56811 8.43431H9.75732C9.91818 8.43431 10.0486 8.30392 10.0486 8.14306C10.0486 7.98224 9.91818 7.85181 9.75732 7.85181Z" fill="#78C081"/>
<path d="M9.75732 8.94189H6.56811C6.40725 8.94189 6.27686 9.07229 6.27686 9.23314C6.27682 9.394 6.40725 9.52439 6.56811 9.52439H9.75732C9.91818 9.52439 10.0486 9.394 10.0486 9.23314C10.0486 9.07225 9.91818 8.94189 9.75732 8.94189Z" fill="#78C081"/>
<path d="M9.75732 10.032H6.56811C6.40725 10.032 6.27686 10.1624 6.27686 10.3232C6.27682 10.4841 6.40725 10.6145 6.56811 10.6145H9.75732C9.91818 10.6145 10.0486 10.4841 10.0486 10.3232C10.0486 10.1624 9.91818 10.032 9.75732 10.032Z" fill="#78C081"/>
<path d="M9.75732 11.1221H6.56811C6.40725 11.1221 6.27686 11.2525 6.27686 11.4133C6.27682 11.5742 6.40725 11.7046 6.56811 11.7046H9.75732C9.91818 11.7046 10.0486 11.5742 10.0486 11.4133C10.0486 11.2524 9.91818 11.1221 9.75732 11.1221Z" fill="#78C081"/>
<path d="M9.75732 12.2122H6.56811C6.40725 12.2122 6.27686 12.3425 6.27686 12.5034C6.27682 12.6643 6.40725 12.7947 6.56811 12.7947H9.75732C9.91818 12.7947 10.0486 12.6643 10.0486 12.5034C10.0486 12.3425 9.91818 12.2122 9.75732 12.2122Z" fill="#78C081"/>
<path d="M9.75732 13.3022H6.56811C6.40725 13.3022 6.27686 13.4326 6.27686 13.5935C6.27682 13.7544 6.40725 13.8847 6.56811 13.8847H9.75732C9.91818 13.8847 10.0486 13.7544 10.0486 13.5935C10.0486 13.4326 9.91818 13.3022 9.75732 13.3022Z" fill="#78C081"/>
<path d="M9.75732 14.3923H6.56811C6.40725 14.3923 6.27686 14.5227 6.27686 14.6836C6.27682 14.8444 6.40725 14.9748 6.56811 14.9748H9.75732C9.91818 14.9748 10.0486 14.8444 10.0486 14.6836C10.0486 14.5227 9.91818 14.3923 9.75732 14.3923Z" fill="#78C081"/>
<path d="M9.75732 15.4824H6.56811C6.40725 15.4824 6.27686 15.6128 6.27686 15.7737C6.27682 15.9345 6.40725 16.0649 6.56811 16.0649H9.75732C9.91818 16.0649 10.0486 15.9345 10.0486 15.7737C10.0486 15.6128 9.91818 15.4824 9.75732 15.4824Z" fill="#78C081"/>
<path d="M19.0436 5.67163H17.908C17.7471 5.67163 17.6167 5.80202 17.6167 5.96288C17.6167 6.12374 17.7471 6.25413 17.908 6.25413H19.0436C19.2044 6.25413 19.3348 6.12374 19.3348 5.96288C19.3348 5.80202 19.2044 5.67163 19.0436 5.67163Z" fill="#78C081"/>
<path d="M19.0436 6.76172H17.9079C17.7471 6.76172 17.6167 6.89211 17.6167 7.05297C17.6167 7.21383 17.7471 7.34422 17.9079 7.34422H19.0436C19.2044 7.34422 19.3348 7.21383 19.3348 7.05297C19.3348 6.89215 19.2044 6.76172 19.0436 6.76172Z" fill="#78C081"/>
<path d="M19.0436 7.85181H17.9079C17.7471 7.85181 17.6167 7.9822 17.6167 8.14306C17.6167 8.30392 17.7471 8.43431 17.9079 8.43431H19.0436C19.2044 8.43431 19.3348 8.30392 19.3348 8.14306C19.3348 7.98216 19.2044 7.85181 19.0436 7.85181Z" fill="#78C081"/>
<path d="M19.0436 8.94189H17.9079C17.7471 8.94189 17.6167 9.07228 17.6167 9.23314C17.6167 9.394 17.7471 9.52439 17.9079 9.52439H19.0436C19.2044 9.52439 19.3348 9.394 19.3348 9.23314C19.3348 9.07228 19.2044 8.94189 19.0436 8.94189Z" fill="#78C081"/>
<path d="M19.0436 10.032H17.9079C17.7471 10.032 17.6167 10.1624 17.6167 10.3232C17.6167 10.4841 17.7471 10.6145 17.9079 10.6145H19.0436C19.2044 10.6145 19.3348 10.4841 19.3348 10.3232C19.3348 10.1624 19.2044 10.032 19.0436 10.032Z" fill="#78C081"/>
<path d="M19.0436 11.1221H17.9079C17.7471 11.1221 17.6167 11.2525 17.6167 11.4133C17.6167 11.5742 17.7471 11.7046 17.9079 11.7046H19.0436C19.2044 11.7046 19.3348 11.5742 19.3348 11.4133C19.3348 11.2525 19.2044 11.1221 19.0436 11.1221Z" fill="#78C081"/>
<path d="M19.0436 12.2122H17.9079C17.7471 12.2122 17.6167 12.3425 17.6167 12.5034C17.6167 12.6643 17.7471 12.7947 17.9079 12.7947H19.0436C19.2044 12.7947 19.3348 12.6643 19.3348 12.5034C19.3348 12.3425 19.2044 12.2122 19.0436 12.2122Z" fill="#78C081"/>
<path d="M19.0436 13.3022H17.9079C17.7471 13.3022 17.6167 13.4326 17.6167 13.5935C17.6167 13.7544 17.7471 13.8847 17.9079 13.8847H19.0436C19.2044 13.8847 19.3348 13.7544 19.3348 13.5935C19.3348 13.4326 19.2044 13.3022 19.0436 13.3022Z" fill="#78C081"/>
<path d="M19.0436 14.3923H17.9079C17.7471 14.3923 17.6167 14.5227 17.6167 14.6836C17.6167 14.8444 17.7471 14.9748 17.9079 14.9748H19.0436C19.2044 14.9748 19.3348 14.8444 19.3348 14.6836C19.3348 14.5227 19.2044 14.3923 19.0436 14.3923Z" fill="#78C081"/>
<path d="M19.0436 15.4824H17.9079C17.7471 15.4824 17.6167 15.6128 17.6167 15.7737C17.6167 15.9345 17.7471 16.0649 17.9079 16.0649H19.0436C19.2044 16.0649 19.3348 15.9345 19.3348 15.7737C19.3348 15.6128 19.2044 15.4824 19.0436 15.4824Z" fill="#78C081"/>
<path d="M15.4319 5.67163H12.2038C12.043 5.67163 11.9126 5.80202 11.9126 5.96288C11.9126 6.12374 12.043 6.25413 12.2038 6.25413H15.4319C15.5928 6.25413 15.7231 6.12374 15.7231 5.96288C15.7231 5.80198 15.5928 5.67163 15.4319 5.67163Z" fill="#78C081"/>
<path d="M15.4319 4.58154H12.2038C12.043 4.58154 11.9126 4.71193 11.9126 4.87279C11.9126 5.03365 12.043 5.16404 12.2038 5.16404H15.4319C15.5928 5.16404 15.7231 5.03365 15.7231 4.87279C15.7231 4.71193 15.5928 4.58154 15.4319 4.58154Z" fill="#78C081"/>
<path d="M15.4319 16.5808H12.2038C12.043 16.5808 11.9126 16.7112 11.9126 16.8721C11.9126 17.0329 12.043 17.1633 12.2038 17.1633H15.4319C15.5928 17.1633 15.7231 17.0329 15.7231 16.8721C15.7231 16.7112 15.5928 16.5808 15.4319 16.5808Z" fill="#78C081"/>
<path d="M15.4319 6.76172H12.2038C12.043 6.76172 11.9126 6.89211 11.9126 7.05297C11.9126 7.21379 12.043 7.34422 12.2038 7.34422H15.4319C15.5928 7.34422 15.7231 7.21383 15.7231 7.05297C15.7231 6.89211 15.5928 6.76172 15.4319 6.76172Z" fill="#78C081"/>
<path d="M15.4319 7.85181H12.2038C12.043 7.85181 11.9126 7.9822 11.9126 8.14306C11.9126 8.30392 12.043 8.43431 12.2038 8.43431H15.4319C15.5928 8.43431 15.7231 8.30392 15.7231 8.14306C15.7231 7.98224 15.5928 7.85181 15.4319 7.85181Z" fill="#78C081"/>
<path d="M15.4319 8.94189H12.2038C12.043 8.94189 11.9126 9.07229 11.9126 9.23314C11.9126 9.394 12.043 9.52439 12.2038 9.52439H15.4319C15.5928 9.52439 15.7231 9.394 15.7231 9.23314C15.7231 9.07225 15.5928 8.94189 15.4319 8.94189Z" fill="#78C081"/>
<path d="M15.4319 10.032H12.2038C12.043 10.032 11.9126 10.1624 11.9126 10.3232C11.9126 10.4841 12.043 10.6145 12.2038 10.6145H15.4319C15.5928 10.6145 15.7231 10.4841 15.7231 10.3232C15.7231 10.1624 15.5928 10.032 15.4319 10.032Z" fill="#78C081"/>
<path d="M15.4319 11.1221H12.2038C12.043 11.1221 11.9126 11.2525 11.9126 11.4133C11.9126 11.5742 12.043 11.7046 12.2038 11.7046H15.4319C15.5928 11.7046 15.7231 11.5742 15.7231 11.4133C15.7231 11.2525 15.5928 11.1221 15.4319 11.1221Z" fill="#78C081"/>
<path d="M15.4319 12.2122H12.2038C12.043 12.2122 11.9126 12.3425 11.9126 12.5034C11.9126 12.6643 12.043 12.7947 12.2038 12.7947H15.4319C15.5928 12.7947 15.7231 12.6643 15.7231 12.5034C15.7231 12.3425 15.5928 12.2122 15.4319 12.2122Z" fill="#78C081"/>
<path d="M15.4319 13.3022H12.2038C12.043 13.3022 11.9126 13.4326 11.9126 13.5935C11.9126 13.7544 12.043 13.8847 12.2038 13.8847H15.4319C15.5928 13.8847 15.7231 13.7544 15.7231 13.5935C15.7231 13.4326 15.5928 13.3022 15.4319 13.3022Z" fill="#78C081"/>
<path d="M15.4319 14.3923H12.2038C12.043 14.3923 11.9126 14.5227 11.9126 14.6836C11.9126 14.8444 12.043 14.9748 12.2038 14.9748H15.4319C15.5928 14.9748 15.7231 14.8444 15.7231 14.6836C15.7231 14.5227 15.5928 14.3923 15.4319 14.3923Z" fill="#78C081"/>
<path d="M15.4319 15.4824H12.2038C12.043 15.4824 11.9126 15.6128 11.9126 15.7737C11.9126 15.9345 12.043 16.0649 12.2038 16.0649H15.4319C15.5928 16.0649 15.7231 15.9345 15.7231 15.7737C15.7231 15.6128 15.5928 15.4824 15.4319 15.4824Z" fill="#78C081"/>
</svg>

<svg width="22" height="20" fill="none" xmlns="http://www.w3.org/2000/svg"><path d="M20.587 17.578h-.276V3.39c0-.97-.79-1.76-1.76-1.76h-.456A1.241 1.241 0 0016.89.68H4.923a1.24 1.24 0 00-1.204.948h-.27c-.97 0-1.76.79-1.76 1.76v14.189h-.276A.414.414 0 001 17.99v.915c0 .228.185.413.413.413h19.174a.414.414 0 00.413-.413v-.915a.414.414 0 00-.413-.413zM2.27 3.388a1.18 1.18 0 011.178-1.177H5.29a.291.291 0 100-.582h-.955a.657.657 0 01.587-.366H16.89c.258 0 .48.15.588.366H6.568a.291.291 0 100 .582h11.983c.65 0 1.178.529 1.178 1.178v.094H2.27V3.39zm0 1.776h2c.403 0 .731.328.731.731v9.946a.732.732 0 01-.731.731h-2V5.164zm-.688 13.573v-.576h1.456a.291.291 0 000-.583H2.27v-.423h2c.724 0 1.314-.59 1.314-1.314V5.895c0-.724-.59-1.313-1.314-1.313h-2v-.516h8.438v2.987a.291.291 0 00.582 0V4.066h8.438v.516H17.73c-.724 0-1.314.589-1.314 1.313v9.946c0 .725.59 1.314 1.314 1.314h1.998v.423H11.29V8.234a.291.291 0 00-.582 0v9.344H4.294a.291.291 0 100 .583h16.123v.576H1.584zM19.729 5.164v11.409H17.73a.732.732 0 01-.73-.733V5.895c0-.403.328-.73.731-.73h1.998z" fill="#78C081"/><path d="M4.092 5.672H2.957a.291.291 0 100 .582h1.135a.291.291 0 100-.582zm0 1.09H2.957a.291.291 0 100 .582h1.135a.291.291 0 100-.582zm0 1.09H2.957a.291.291 0 100 .582h1.135a.291.291 0 100-.582zm0 1.09H2.957a.291.291 0 100 .582h1.135a.291.291 0 100-.582zm0 1.09H2.957a.291.291 0 100 .582h1.135a.291.291 0 000-.582zm0 1.09H2.957a.291.291 0 100 .583h1.135a.291.291 0 000-.583zm0 1.09H2.957a.291.291 0 100 .583h1.135a.291.291 0 000-.583zm0 1.09H2.957a.291.291 0 000 .583h1.135a.291.291 0 100-.583zm0 1.09H2.957a.291.291 0 000 .583h1.135a.291.291 0 100-.583zm0 1.09H2.957a.291.291 0 000 .583h1.135a.291.291 0 100-.583zm5.665-9.81H6.568a.291.291 0 100 .582h3.19a.291.291 0 100-.582zm0-1.09H6.568a.291.291 0 100 .582h3.19a.291.291 0 100-.582zm0 11.998H6.568a.291.291 0 000 .583h3.19a.291.291 0 100-.582zm0-9.818H6.568a.291.291 0 100 .582h3.19a.291.291 0 100-.582zm0 1.09H6.568a.291.291 0 100 .582h3.19a.291.291 0 100-.582zm0 1.09H6.568a.291.291 0 100 .582h3.19a.291.291 0 100-.582zm0 1.09H6.568a.291.291 0 100 .582h3.19a.291.291 0 000-.582zm0 1.09H6.568a.291.291 0 100 .583h3.19a.291.291 0 000-.583zm0 1.09H6.568a.291.291 0 100 .583h3.19a.291.291 0 000-.583zm0 1.09H6.568a.291.291 0 000 .583h3.19a.291.291 0 100-.583zm0 1.09H6.568a.291.291 0 000 .583h3.19a.291.291 0 100-.583zm0 1.09H6.568a.291.291 0 000 .583h3.19a.291.291 0 100-.583zm9.287-9.81h-1.136a.291.291 0 100 .582h1.136a.291.291 0 000-.582zm0 1.09h-1.136a.291.291 0 000 .582h1.136a.291.291 0 000-.582zm0 1.09h-1.136a.291.291 0 000 .582h1.136a.291.291 0 000-.582zm0 1.09h-1.136a.291.291 0 000 .582h1.136a.291.291 0 000-.582zm0 1.09h-1.136a.291.291 0 000 .582h1.136a.291.291 0 000-.582zm0 1.09h-1.136a.291.291 0 000 .583h1.136a.291.291 0 000-.583zm0 1.09h-1.136a.291.291 0 100 .583h1.136a.291.291 0 000-.583zm0 1.09h-1.136a.291.291 0 000 .583h1.136a.291.291 0 100-.583zm0 1.09h-1.136a.291.291 0 000 .583h1.136a.291.291 0 000-.583zm0 1.09h-1.136a.291.291 0 000 .583h1.136a.291.291 0 000-.583zm-3.612-9.81h-3.228a.291.291 0 000 .582h3.228a.291.291 0 100-.582zm0-1.09h-3.228a.291.291 0 000 .582h3.228a.291.291 0 100-.582zm0 11.998h-3.228a.291.291 0 000 .583h3.228a.291.291 0 100-.582zm0-9.818h-3.228a.291.291 0 000 .582h3.228a.291.291 0 100-.582zm0 1.09h-3.228a.291.291 0 000 .582h3.228a.291.291 0 100-.582zm0 1.09h-3.228a.291.291 0 000 .582h3.228a.291.291 0 100-.582zm0 1.09h-3.228a.291.291 0 000 .582h3.228a.291.291 0 100-.582zm0 1.09h-3.228a.291.291 0 000 .583h3.228a.291.291 0 100-.583zm0 1.09h-3.228a.291.291 0 100 .583h3.228a.291.291 0 100-.583zm0 1.09h-3.228a.291.291 0 000 .583h3.228a.291.291 0 100-.583zm0 1.09h-3.228a.291.291 0 000 .583h3.228a.291.291 0 100-.583zm0 1.09h-3.228a.291.291 0 000 .583h3.228a.291.291 0 100-.583z" fill="#78C081"/></svg>
